assets/guide-stopping-bus-icon.svg

<svg width="150" height="150" viewBox="0 0 150 150" fill="none" xmlns="http://www.w3.org/2000/svg">
<circle cx="75" cy="75" r="75" fill="#FFFFFF"/>
<path d="M104.194 38.7838L98.2583 44.7197L99.4395 45.9009L105.375 39.965L104.194 38.7838Z" fill="#00152B"/>
<path d="M109.044 48.3215H100.649V49.992H109.044V48.3215Z" fill="#00152B"/>
<path d="M95.7017 35H94.0312V43.3946H95.7017V35Z" fill="#00152B"/>
<path d="M72.5689 58.7883C73.654 58.7811 74.7152 58.4682 75.6307 57.8854C76.5461 57.3027 77.2787 56.4737 77.7445 55.4935C78.2103 54.5134 78.3904 53.4218 78.2641 52.344C78.1378 51.2661 77.7103 50.2457 77.0305 49.3998C76.822 49.0714 76.5396 48.7962 76.2058 48.5963C75.3549 47.9382 74.3369 47.531 73.2668 47.4206C72.1967 47.3102 71.1171 47.501 70.1496 47.9716C69.1822 48.4421 68.3655 49.1736 67.7917 50.0835C67.2178 50.9934 66.9097 52.0456 66.902 53.1214C66.902 54.6243 67.499 56.0657 68.5618 57.1285C69.6245 58.1912 71.0659 58.7883 72.5689 58.7883Z" fill="#00152B"/>
<path d="M86.5247 57.1391C85.4886 57.9849 81.619 60.6703 81.3653 60.7972C81.0829 60.9238 80.7838 61.0093 80.4772 61.0509H66.4579C66.4579 61.0509 57.9999 60.8818 57.9999 70.6508V89.6815C58.0325 90.3322 58.3141 90.9455 58.7865 91.3942C59.2589 91.843 59.8857 92.0928 60.5373 92.092C60.8657 92.0948 61.1915 92.0322 61.4955 91.9078C61.7995 91.7834 62.0756 91.5998 62.3079 91.3675C62.5402 91.1352 62.7238 90.8591 62.8482 90.5551C62.9726 90.2511 63.0352 89.9253 63.0324 89.5969V70.0588C63.0296 69.9449 63.0493 69.8316 63.0903 69.7254C63.1312 69.6191 63.1928 69.522 63.2713 69.4395C63.3499 69.357 63.4439 69.2908 63.548 69.2447C63.6522 69.1986 63.7644 69.1734 63.8782 69.1707C63.9912 69.1734 64.1024 69.1986 64.2054 69.245C64.3084 69.2914 64.4011 69.3579 64.478 69.4407C64.5548 69.5235 64.6143 69.6208 64.653 69.727C64.6916 69.8331 64.7086 69.946 64.7029 70.0588V112.333C64.7029 112.333 65.3277 113.576 66 114.111C66.7311 114.693 67.2875 115 68.2222 115C69.1569 115 69.7021 114.679 70.4444 114.111C71.1433 113.577 71.8288 112.333 71.8288 112.333V95.0312H73.4781V112.333C73.4781 112.333 73.87 113.569 74.4444 114.111C75.1239 114.753 75.732 115 76.6667 115C77.6013 115 78.153 114.687 78.8889 114.111C79.5722 113.576 80.2222 112.333 80.2222 112.333L80.6675 69.953C80.6675 69.953 80.6675 68.5363 81.1961 68.0923C81.7247 67.6482 88.5123 62.4888 90.3519 60.9664C90.5423 60.8183 95.5325 51.9585 95.8074 51.4722C96.0302 51.1966 96.1911 50.8764 96.2794 50.5332C96.3677 50.19 96.3812 49.8319 96.319 49.483C96.2569 49.1342 96.1205 48.8027 95.9191 48.5111C95.7178 48.2195 95.4561 47.9746 95.1519 47.7929C94.8201 47.6206 94.4561 47.5189 94.083 47.4942C93.7099 47.4695 93.3357 47.5224 92.9841 47.6496C92.6324 47.7767 92.3109 47.9753 92.0399 48.2329C91.7688 48.4905 91.5541 48.8015 91.4092 49.1462C91.4092 49.1462 86.6938 56.9699 86.5247 57.1391Z" fill="#00152B"/>
</svg>

<svg xmlns="http://www.w3.org/2000/svg" width="150" height="150" fill="none" viewBox="0 0 150 150"><circle cx="75" cy="75" r="75" fill="#FFF"/><path fill="#00152B" d="m104.194 38.784-5.936 5.936 1.181 1.18 5.936-5.935zM109.044 48.322h-8.395v1.67h8.395zM95.702 35h-1.67v8.395h1.67zM72.569 58.788A5.773 5.773 0 0 0 77.03 49.4a2.5 2.5 0 0 0-.825-.804 5.772 5.772 0 0 0-9.304 4.525 5.667 5.667 0 0 0 5.667 5.667"/><path fill="#00152B" d="M86.525 57.14c-1.036.845-4.906 3.53-5.16 3.657a3.2 3.2 0 0 1-.888.254h-14.02S58 60.88 58 70.65v19.03a2.537 2.537 0 0 0 2.537 2.411 2.475 2.475 0 0 0 2.495-2.495V70.059a.867.867 0 0 1 .846-.888.846.846 0 0 1 .825.888v42.274s.625 1.243 1.297 1.778c.731.582 1.287.889 2.222.889s1.48-.321 2.222-.889c.7-.534 1.385-1.778 1.385-1.778V95.031h1.65v17.302s.391 1.236.965 1.778c.68.642 1.288.889 2.223.889s1.486-.313 2.222-.889c.683-.535 1.333-1.778 1.333-1.778l.446-42.38s0-1.417.528-1.86c.529-.445 7.316-5.604 9.156-7.127.19-.148 5.18-9.007 5.455-9.494a2.474 2.474 0 0 0-.655-3.68 2.71 2.71 0 0 0-3.743 1.354s-4.715 7.824-4.884 7.993"/></svg>
